styles/5/Numix-Square/48x48/apps/numix-folders.svg

<?xml version="1.0" encoding="UTF-8" standalone="no"?>
<svg
   xmlns:dc="http://purl.org/dc/elements/1.1/"
   xmlns:cc="http://creativecommons.org/ns#"
   xmlns:rdf="http://www.w3.org/1999/02/22-rdf-syntax-ns#"
   xmlns:svg="http://www.w3.org/2000/svg"
   xmlns="http://www.w3.org/2000/svg"
   xmlns:xlink="http://www.w3.org/1999/xlink"
   xmlns:sodipodi="http://sodipodi.sourceforge.net/DTD/sodipodi-0.dtd"
   xmlns:inkscape="http://www.inkscape.org/namespaces/inkscape"
   viewBox="0 0 48 48"
   id="svg2"
   version="1.1"
   inkscape:version="0.91 r13725"
   sodipodi:docname="numix-folders.svg">
  <metadata
     id="metadata41">
    <rdf:RDF>
      <cc:Work
         rdf:about="">
        <dc:format>image/svg+xml</dc:format>
        <dc:type
           rdf:resource="http://purl.org/dc/dcmitype/StillImage" />
      </cc:Work>
    </rdf:RDF>
  </metadata>
  <sodipodi:namedview
     pagecolor="#ffffff"
     bordercolor="#666666"
     borderopacity="1"
     objecttolerance="10"
     gridtolerance="10"
     guidetolerance="10"
     inkscape:pageopacity="0"
     inkscape:pageshadow="2"
     inkscape:window-width="750"
     inkscape:window-height="982"
     id="namedview39"
     showgrid="true"
     inkscape:zoom="4.9166667"
     inkscape:cx="33.713051"
     inkscape:cy="34.011958"
     inkscape:window-x="520"
     inkscape:window-y="32"
     inkscape:window-maximized="0"
     inkscape:current-layer="svg2">
    <inkscape:grid
       type="xygrid"
       id="grid3383" />
  </sodipodi:namedview>
  <defs
     id="defs4">
    <linearGradient
       id="linearGradient5286"
       gradientUnits="userSpaceOnUse"
       gradientTransform="translate(-48,0.00221524)"
       x1="1"
       x2="47"
       y1="0"
       y2="0"
       spreadMethod="pad">
      <stop
         style="stop-color:#6cb85a;stop-opacity:1"
         id="stop7" />
      <stop
         offset="1"
         style="stop-color:#79be68;stop-opacity:1"
         id="stop9" />
    </linearGradient>
    <linearGradient
       id="linearGradient3764-6"
       x1="1"
       x2="47"
       gradientUnits="userSpaceOnUse"
       gradientTransform="matrix(0,-1,1,0,-1.5e-6,47.999998)">
      <stop
         style="stop-color:#e4e4e4;stop-opacity:1"
         id="stop7-1" />
      <stop
         offset="1"
         style="stop-color:#eee;stop-opacity:1"
         id="stop9-5" />
    </linearGradient>
    <linearGradient
       inkscape:collect="always"
       xlink:href="#linearGradient3764-6"
       id="linearGradient4241"
       x1="-47"
       y1="24"
       x2="-1"
       y2="24"
       gradientUnits="userSpaceOnUse" />
  </defs>
  <g
     id="g11">
    <path
       d="m 1,43 0,0.25 c 0,2.216 1.784,4 4,4 l 38,0 c 2.216,0 4,-1.784 4,-4 L 47,43 c 0,2.216 -1.784,4 -4,4 L 5,47 C 2.784,47 1,45.216 1,43 z m 0,0.5 0,0.5 c 0,2.216 1.784,4 4,4 l 38,0 c 2.216,0 4,-1.784 4,-4 l 0,-0.5 c 0,2.216 -1.784,4 -4,4 l -38,0 c -2.216,0 -4,-1.784 -4,-4 z"
       style="opacity:0.02"
       id="path13" />
    <path
       d="m 1 43.25 0 0.25 c 0 2.216 1.784 4 4 4 l 38 0 c 2.216 0 4 -1.784 4 -4 l 0 -0.25 c 0 2.216 -1.784 4 -4 4 l -38 0 c -2.216 0 -4 -1.784 -4 -4 z"
       style="opacity:0.05"
       id="path15" />
    <path
       d="m 1,43 0,0.25 c 0,2.216 1.784,4 4,4 l 38,0 c 2.216,0 4,-1.784 4,-4 L 47,43 c 0,2.216 -1.784,4 -4,4 L 5,47 C 2.784,47 1,45.216 1,43 z"
       style="opacity:0.1"
       id="path17" />
  </g>
  <rect
     transform="matrix(0,-1,1,0,0,0)"
     rx="4"
     y="1"
     x="-47"
     height="46"
     width="46"
     style="fill:url(#linearGradient4241);fill-opacity:1.0"
     id="rect19" />
  <g
     id="g21">
    <g
       transform="translate(0,-1004.3622)"
       id="g23">
      <path
         d="m 1 1043.36 0 4 c 0 2.216 1.784 4 4 4 l 38 0 c 2.216 0 4 -1.784 4 -4 l 0 -4 c 0 2.216 -1.784 4 -4 4 l -38 0 c -2.216 0 -4 -1.784 -4 -4 z"
         style="opacity:0.1"
         id="path25" />
    </g>
  </g>
  <rect
     width="11"
     height="4"
     x="14"
     y="17"
     style="fill:#fffdf0;fill-opacity:1;stroke:none"
     id="rect27" />
  <path
     d="m 27.13 14 c -1.904 0 -2.522 1.501 -3.5 3 l -9.125 0 c -1.385 0 -2.5 1.115 -2.5 2.5 l 0 1 0 8.5 0 1.5 0 0.875 l 0 0.125 c 0.006 0.139 0.036 0.274 0.063 0.406 0.119 0.691 0.513 1.281 1.094 1.656 0.277 0.179 0.597 0.309 0.938 0.375 0.17 0.035 0.319 0.063 0.5 0.063 l 18.813 0 c 0.181 0 0.33 -0.027 0.5 -0.063 0.34 -0.066 0.66 -0.196 0.937 -0.375 0.581 -0.375 0.974 -0.965 1.094 -1.656 0.027 -0.132 0.056 -0.268 0.063 -0.406 l 0 -0.125 0 -0.875 0 -13.875 c 0 -1.462 -1.149 -2.625 -2.594 -2.625 l -6.281 0 z"
     style="fill:#000;fill-opacity:0.102;stroke:none"
     id="path29" />
  <path
     style="opacity:1;fill:#617fa1;fill-opacity:1;fill-rule:nonzero;stroke:none;stroke-width:2.5;stroke-linejoin:round;stroke-miterlimit:4;stroke-dasharray:none;stroke-opacity:1"
     d="M 14.5 15 C 13.115 15 12 16.115 12 17.5 L 12 27 L 16 27 L 16 15 L 14.5 15 z "
     id="rect3413-8-1-0" />
  <path
     style="fill:#cdc22c;fill-opacity:1;stroke:none"
     d="M 21 15 L 21 27 L 27 27 L 27 15 L 21 15 z "
     id="path31" />
  <path
     style="opacity:1;fill:#5a945c;fill-opacity:1;fill-rule:nonzero;stroke:none;stroke-width:2.5;stroke-linejoin:round;stroke-miterlimit:4;stroke-dasharray:none;stroke-opacity:1"
     d="M 16 15 L 16 27 L 21 27 L 21 15 L 16 15 z "
     id="rect3415-6-0-9" />
  <path
     d="m 14.5 15 c -1.385 0 -2.5 1.115 -2.5 2.5 l 0 1 c 0 -1.385 1.115 -2.5 2.5 -2.5 l 18 0 c 1.385 0 2.5 1.115 2.5 2.5 l 0 -1 c 0 -1.385 -1.115 -2.5 -2.5 -2.5 l -18 0 z"
     style="fill:#fff;opacity:0.2;fill-opacity:1;stroke:none"
     id="path33" />
  <path
     style="opacity:1;fill:#9ab9dd;fill-opacity:1;fill-rule:nonzero;stroke:none;stroke-width:2.5;stroke-linejoin:round;stroke-miterlimit:4;stroke-dasharray:none;stroke-opacity:1"
     d="M 14.609375 19 C 13.043375 19 12 20.389656 12 21.972656 L 12 30.361328 C 12 31.823328 13.164375 33 14.609375 33 L 16 33 L 16 19 L 14.609375 19 z "
     id="rect3413-8-1" />
  <path
     style="opacity:1;fill:#9add9c;fill-opacity:1;fill-rule:nonzero;stroke:none;stroke-width:2.5;stroke-linejoin:round;stroke-miterlimit:4;stroke-dasharray:none;stroke-opacity:1"
     d="M 21 18.421875 C 20.391605 18.704888 19.677589 18.917715 18.783203 19 L 16 19 L 16 33 L 21 33 L 21 18.421875 z "
     id="rect3415-6-0" />
  <path
     style="opacity:1;fill:#edb968;fill-opacity:1;fill-rule:nonzero;stroke:none;stroke-width:2.5;stroke-linejoin:round;stroke-miterlimit:4;stroke-dasharray:none;stroke-opacity:1"
     d="M 27.130859 13 C 27.083633 13 27.045681 13.011864 27 13.013672 L 27 33 L 32 33 L 32 13 L 27.130859 13 z "
     id="rect3417-3-7" />
  <path
     style="opacity:1;fill:#ed8e68;fill-opacity:1;fill-rule:nonzero;stroke:none;stroke-width:2.5;stroke-linejoin:round;stroke-miterlimit:4;stroke-dasharray:none;stroke-opacity:1"
     d="M 32 13 L 32 33 L 33.392578 33 C 34.831959 33 35.98942 31.833551 36 30.380859 L 36 15.619141 C 35.989411 14.166449 34.830964 13 33.392578 13 L 32 13 z "
     id="rect3419-9-7" />
  <path
     style="opacity:1;fill:#f3f284;fill-opacity:1;fill-rule:nonzero;stroke:none;stroke-width:2.5;stroke-linejoin:round;stroke-miterlimit:4;stroke-dasharray:none;stroke-opacity:1"
     d="M 27 13.013672 C 24.063705 13.129862 24.245004 16.912366 21 18.421875 L 21 33 L 27 33 L 27 13.013672 z "
     id="rect3421-4-9" />
  <path
     d="m 12 29.5 0 1 c 0 1.385 1.163 2.5 2.609 2.5 l 18.783 0 c 1.445 0 2.609 -1.115 2.609 -2.5 l 0 -1 c 0 1.385 -1.163 2.5 -2.609 2.5 l -18.783 0 c -1.445 0 -2.609 -1.115 -2.609 -2.5 z"
     style="fill:#000;opacity:0.15;fill-opacity:1;stroke:none"
     id="path37" />
</svg>

<svg xmlns="http://www.w3.org/2000/svg" viewBox="0 0 48 48">
 <defs>
  <linearGradient id="linearGradient4241" x1="-47" x2="-1" gradientUnits="userSpaceOnUse">
   <stop style="stop-color:#e4e4e4;stop-opacity:1"/>
   <stop offset="1" style="stop-color:#eee;stop-opacity:1"/>
  </linearGradient>
 </defs>
 <g>
  <path d="m 1,43 0,0.25 c 0,2.216 1.784,4 4,4 l 38,0 c 2.216,0 4,-1.784 4,-4 L 47,43 c 0,2.216 -1.784,4 -4,4 L 5,47 C 2.784,47 1,45.216 1,43 z m 0,0.5 0,0.5 c 0,2.216 1.784,4 4,4 l 38,0 c 2.216,0 4,-1.784 4,-4 l 0,-0.5 c 0,2.216 -1.784,4 -4,4 l -38,0 c -2.216,0 -4,-1.784 -4,-4 z" style="opacity:0.02"/>
  <path d="m 1 43.25 0 0.25 c 0 2.216 1.784 4 4 4 l 38 0 c 2.216 0 4 -1.784 4 -4 l 0 -0.25 c 0 2.216 -1.784 4 -4 4 l -38 0 c -2.216 0 -4 -1.784 -4 -4 z" style="opacity:0.05"/>
  <path d="m 1,43 0,0.25 c 0,2.216 1.784,4 4,4 l 38,0 c 2.216,0 4,-1.784 4,-4 L 47,43 c 0,2.216 -1.784,4 -4,4 L 5,47 C 2.784,47 1,45.216 1,43 z" style="opacity:0.1"/>
 </g>
 <rect transform="matrix(0,-1,1,0,0,0)" rx="4" y="1" x="-47" height="46" width="46" style="fill:url(#linearGradient4241);fill-opacity:1"/>
 <g>
  <g transform="translate(0,-1004.3622)">
   <path d="m 1 1043.36 0 4 c 0 2.216 1.784 4 4 4 l 38 0 c 2.216 0 4 -1.784 4 -4 l 0 -4 c 0 2.216 -1.784 4 -4 4 l -38 0 c -2.216 0 -4 -1.784 -4 -4 z" style="opacity:0.1"/>
  </g>
 </g>
 <rect width="11" height="4" x="14" y="17" style="fill:#fffdf0;fill-opacity:1;stroke:none"/>
 <path d="m 27.13 14 c -1.904 0 -2.522 1.501 -3.5 3 l -9.125 0 c -1.385 0 -2.5 1.115 -2.5 2.5 l 0 1 0 8.5 0 1.5 0 0.875 l 0 0.125 c 0.006 0.139 0.036 0.274 0.063 0.406 0.119 0.691 0.513 1.281 1.094 1.656 0.277 0.179 0.597 0.309 0.938 0.375 0.17 0.035 0.319 0.063 0.5 0.063 l 18.813 0 c 0.181 0 0.33 -0.027 0.5 -0.063 0.34 -0.066 0.66 -0.196 0.937 -0.375 0.581 -0.375 0.974 -0.965 1.094 -1.656 0.027 -0.132 0.056 -0.268 0.063 -0.406 l 0 -0.125 0 -0.875 0 -13.875 c 0 -1.462 -1.149 -2.625 -2.594 -2.625 l -6.281 0 z" style="fill:#000;fill-opacity:0.102;stroke:none"/>
 <path d="m 14.5 15 c -1.385 0 -2.5 1.115 -2.5 2.5 l 0 9.5 l 4 0 l 0 -12 l -1.5 0 z" style="fill:#617fa1;opacity:1;fill-opacity:1;stroke:none;fill-rule:nonzero"/>
 <path d="m 21 15 l 0 12 l 6 0 l 0 -12 l -6 0 z" style="fill:#cdc22c;fill-opacity:1;stroke:none"/>
 <path d="m 16 15 l 0 12 l 5 0 l 0 -12 l -5 0 z" style="fill:#5a945c;opacity:1;fill-opacity:1;stroke:none;fill-rule:nonzero"/>
 <path d="m 14.5 15 c -1.385 0 -2.5 1.115 -2.5 2.5 l 0 1 c 0 -1.385 1.115 -2.5 2.5 -2.5 l 18 0 c 1.385 0 2.5 1.115 2.5 2.5 l 0 -1 c 0 -1.385 -1.115 -2.5 -2.5 -2.5 l -18 0 z" style="fill:#fff;opacity:0.2;fill-opacity:1;stroke:none"/>
 <path d="m 14.609 19 c -1.566 0 -2.609 1.39 -2.609 2.973 l 0 8.389 c 0 1.462 1.164 2.639 2.609 2.639 l 1.391 0 l 0 -14 l -1.391 0 z" style="fill:#9ab9dd;opacity:1;fill-opacity:1;stroke:none;fill-rule:nonzero"/>
 <path d="m 21 18.422 c -0.608 0.283 -1.322 0.496 -2.217 0.578 l -2.783 0 l 0 14 l 5 0 l 0 -14.578 z" style="fill:#9add9c;opacity:1;fill-opacity:1;stroke:none;fill-rule:nonzero"/>
 <path d="m 27.13 13 c -0.047 0 -0.085 0.012 -0.131 0.014 l 0 19.986 l 5 0 l 0 -20 l -4.869 0 z" style="fill:#edb968;opacity:1;fill-opacity:1;stroke:none;fill-rule:nonzero"/>
 <path d="m 32 13 l 0 20 l 1.393 0 c 1.439 0 2.597 -1.166 2.607 -2.619 l 0 -14.762 c -0.011 -1.453 -1.169 -2.619 -2.607 -2.619 l -1.393 0 z" style="fill:#ed8e68;opacity:1;fill-opacity:1;stroke:none;fill-rule:nonzero"/>
 <path d="m 27 13.01 c -2.936 0.116 -2.755 3.899 -6 5.408 l 0 14.578 l 6 0 l 0 -19.986 z" style="fill:#f3f284;opacity:1;fill-opacity:1;stroke:none;fill-rule:nonzero"/>
 <path d="m 12 29.5 0 1 c 0 1.385 1.163 2.5 2.609 2.5 l 18.783 0 c 1.445 0 2.609 -1.115 2.609 -2.5 l 0 -1 c 0 1.385 -1.163 2.5 -2.609 2.5 l -18.783 0 c -1.445 0 -2.609 -1.115 -2.609 -2.5 z" style="fill:#000;opacity:0.15;fill-opacity:1;stroke:none"/>
</svg>
